X:8288
T:Joys of Wedlock
R:jig
M:6/8
L:1/8
K:G
D|GAG GBd|gfe d2c|Bdg dBG|FAA A2D|
GAG GBd|gfe d2c|BdB cAF|AGG G2:|
|:c|Bdg dBG|Bdg d2c|Bdg dBG|FAA A2c|
Bdd def|gfe fed|BdB cAF|AGG G2:|
